puzzle-heart-outline.svg

<svg fill="currentColor" viewBox="0 0 24 24"><path d="M13.2 22v-.3c0-1.49-1.2-2.7-2.7-2.7s-2.7 1.21-2.7 2.7v.3H4a2 2 0 0 1-2-2v-3.8h.3C3.79 16.2 5 15 5 13.5s-1.21-2.7-2.7-2.7H2V7c0-1.1.9-2 2-2h3.04c.24-1.7 1.7-3 3.46-3s3.22 1.3 3.46 3H17a2 2 0 0 1 2 2v3.04c1.45.21 2.61 1.3 2.91 2.72A5.95 5.95 0 0 0 19 12h-2V7h-5V5.5c0-.83-.67-1.5-1.5-1.5S9 4.67 9 5.5V7H4v2.12c1.76.68 3 2.38 3 4.38s-1.25 3.7-3 4.38V20h2.12a4.7 4.7 0 0 1 4.38-3c.93 0 1.79.28 2.5.74V18c0 1.54.58 2.94 1.54 4zm5.8.3.6-.5c2-1.9 3.4-3.1 3.4-4.6 0-1.3-1-2.2-2.2-2.2-.7 0-1.4.3-1.8.8-.4-.5-1.1-.8-1.8-.8-1.2 0-2.2 1-2.2 2.2 0 1.5 1.4 2.7 3.4 4.6z"/></svg>

<svg  viewBox="0 0 24 24" fill="currentColor"><path  d="M13.2 22V21.7C13.2 20.21 12 19 10.5 19C9 19 7.8 20.21 7.8 21.7V22H4C2.9 22 2 21.11 2 20V16.2H2.3C3.79 16.2 5 15 5 13.5S3.79 10.8 2.3 10.8H2V7C2 5.9 2.9 5 4 5H7.04C7.28 3.3 8.74 2 10.5 2S13.72 3.3 13.96 5H17C18.11 5 19 5.9 19 7V10.04C20.45 10.25 21.61 11.34 21.91 12.76C21.05 12.28 20.06 12 19 12C18.89 12 18.78 12 18.67 12C18.61 12 18.56 12 18.5 12H17V7H12V5.5C12 4.67 11.33 4 10.5 4S9 4.67 9 5.5V7H4V9.12C5.76 9.8 7 11.5 7 13.5S5.75 17.2 4 17.88V20H6.12C6.8 18.25 8.5 17 10.5 17C11.43 17 12.29 17.28 13 17.74C13 17.83 13 17.91 13 18C13 19.54 13.58 20.94 14.54 22H13.2M19 22.3L19.6 21.8C21.6 19.9 23 18.7 23 17.2C23 15.9 22 15 20.8 15C20.1 15 19.4 15.3 19 15.8C18.6 15.3 17.9 15 17.2 15C16 15 15 16 15 17.2C15 18.7 16.4 19.9 18.4 21.8L19 22.3"/></svg>
